X: 67
T: Rose Tree
N: trad British Isles, New England
M: C|
L: 1/8
B: NEFR #67
Z: Mary Lou Knack?
R: reel
K: D
fe \
| "D"d2 B2 A2 F2 | AB AF A2 A2 | "D"d2 d2 "A7"e2 de | "D"f2 e2 "A7"eg fe |
| "D"d2 B2 A2 F2 | AB AF A2 A2 | "D"d2 d2 "A7"((3efe) de | "D"f2 d2 d2 :|
|: e2 \
| "D"f3 e f2 g2 | a4 g2 f2 | "Em"e2 b2 b3 a | "A7"b3 e eg fe |
| "D"d2 B2 A2 FG | AB AF A2 FA | "D"d2 d2 "A"((3efe) de | "D"f2d2 d2 :|
